!!!OTL: RUHIG IST DES TODES SCHLUMMER
!!!ARE: Europa, Mitteleuropa, Deutschland
!!!SCT: B0775A
!!!YEM: Copyright 1995, estate of Helmut Schaffrath.
**kern
*ICvox
*Ivox
*M3/4
*k[b-e-a-]
*E-:
=1
{4B-
4c
4B-
=2
4B-
4A-
4G
=3
4F
4A-
8G
8F
=4
4D
4E-
4r}
=5
{2F
4F
=6
4F
4e-
4d
=7
4c
8e-
8c
8B-
8An
=8
2B-
4r}
=9
{4B-
4c
4B-
=10
4B-
4A-
4G
=11
4F
4A-
8G
8F
=12
4D
4E-
4r}
=13
{2F
4F
=14
4F
4e-
4d
=15
4c
8e-
8c
8B-
8An
=16
2B-
4r}
=17
{4.d
8f
16e-
16d
16c
16B-
=18
2e-
4B-
=19
2f
4A-
=20
4A-
4G
4r}
=21
{4B-
4c
4d
=22
2e-
4e-
=23
4e-
8g
8e-
8f
8d
=24
2e-
4r}
==
!!!AGN: Trost - Lied, Tod, religioes
!!!ONB: ESAC (Essen Associative Code) Database: BOEHME
!!!AMT: simple triple
!!!AIN: vox
!!!EED: Helmut Schaffrath
!!!EEV: 1.0
*-
